packages/smooth_app/assets/onboarding/birthday-cake.svg

<svg width="72" height="64" viewBox="0 0 72 64" fill="none" xmlns="http://www.w3.org/2000/svg">
    <g clip-path="url(#clip0_3295_4350)">
        <path d="M47.2247 36.2834L41.7024 36.7666L41.1139 30.0394C41.0265 29.0403 41.762 28.1582 42.755 28.0714L44.6782 27.9031C45.6711 27.8162 46.5487 28.5572 46.6361 29.5563L47.2247 36.2834Z" fill="white"/>
        <path d="M38.1433 37.0779L32.621 37.561L31.7446 27.5432C31.6572 26.5442 32.3928 25.6621 33.3857 25.5752L35.3089 25.4069C36.3019 25.3201 37.1794 26.0611 37.2668 27.0601L38.1433 37.0779Z" fill="white"/>
        <path d="M28.9751 37.8799L23.4529 38.363L23.0302 33.5323C22.9428 32.5333 23.6784 31.6512 24.6713 31.5643L26.5946 31.396C27.5875 31.3092 28.4651 32.0501 28.5525 33.0492L28.9751 37.8799Z" fill="white"/>
        <path d="M36.0885 21.8658C36.2343 23.5319 35.4377 24.9616 34.3096 25.0603C33.1816 25.159 32.1488 23.8893 32.003 22.2232C31.8573 20.5572 32.5524 17.9681 33.6805 17.8694C34.8086 17.7707 35.9428 20.1998 36.0885 21.8658Z" fill="#FFBE00"/>
        <path d="M27.3743 27.8563C27.5201 29.5223 26.7235 30.9521 25.5954 31.0508C24.4673 31.1495 23.4346 29.8798 23.2888 28.2137C23.143 26.5477 23.8382 23.9585 24.9663 23.8599C26.0943 23.7612 27.2285 26.1902 27.3743 27.8563Z" fill="#FFBE00"/>
        <path d="M45.4579 24.3634C45.6037 26.0294 44.8071 27.4592 43.679 27.5579C42.551 27.6566 41.5182 26.3868 41.3724 24.7208C41.2267 23.0547 41.9218 20.4656 43.0499 20.3669C44.178 20.2682 45.3122 22.6973 45.4579 24.3634Z" fill="#FFBE00"/>
        <path d="M19.7983 38.5011L50.9345 35.7771C54.6259 35.4541 57.8856 38.2078 58.2104 41.9206L59.4334 55.8988C59.563 57.3802 58.4733 58.6871 57.0009 58.8159L17.8246 62.2434C16.3523 62.3722 15.0522 61.2744 14.9226 59.793L13.6997 45.8148C13.3747 42.1005 16.1083 38.824 19.7983 38.5011Z" fill="#F1B0FF"/>
        <path d="M25.9743 44.8188C25.8335 44.8312 25.6887 44.7991 25.5598 44.7181C25.2443 44.5192 25.149 44.1021 25.3449 43.785L26.7923 41.4546C26.9896 41.1373 27.4039 41.0405 27.7195 41.2393C28.035 41.4381 28.1303 41.8553 27.9344 42.1724L26.487 44.5028C26.3701 44.6904 26.1777 44.801 25.9743 44.8188Z" fill="#00A4FF"/>
        <path d="M50.9295 41.7008C50.7887 41.7131 50.644 41.6811 50.5151 41.6C50.1995 41.4012 50.1043 40.9841 50.3001 40.6669L51.7475 38.3365C51.9448 38.0193 52.3593 37.9239 52.6748 38.1213C52.9903 38.3201 53.0856 38.7372 52.8897 39.0544L51.4423 41.3848C51.3254 41.5724 51.133 41.683 50.9295 41.7008Z" fill="#00A4FF"/>
        <path d="M37.986 43.5704C37.8452 43.5827 37.7005 43.5507 37.5715 43.4697C37.256 43.2708 37.1607 42.8537 37.3566 42.5366L38.804 40.2061C39.0013 39.8889 39.4158 39.7935 39.7312 39.9909C40.0468 40.1897 40.142 40.6069 39.9461 40.924L38.4987 43.2544C38.3818 43.442 38.1894 43.5526 37.986 43.5704Z" fill="#00A4FF"/>
        <path d="M46.2571 44.5081C46.1163 44.5204 45.9716 44.4884 45.8427 44.4073L43.5248 42.9486C43.2092 42.7498 43.114 42.3327 43.3098 42.0155C43.5071 41.6983 43.9216 41.6029 44.2371 41.8003L46.5549 43.259C46.8705 43.4578 46.9657 43.875 46.7699 44.1921C46.653 44.3797 46.4606 44.4903 46.2571 44.5081Z" fill="#00A4FF"/>
        <path d="M20.6807 43.9666C20.5398 43.9789 20.3951 43.9469 20.2662 43.8658L17.9483 42.4071C17.6328 42.2083 17.5375 41.7912 17.7334 41.474C17.9307 41.1568 18.3452 41.0614 18.6606 41.2588L20.9785 42.7175C21.294 42.9163 21.3893 43.3334 21.1934 43.6506C21.0765 43.8382 20.8841 43.9488 20.6807 43.9666Z" fill="#00A4FF"/>
        <path d="M19.7322 48.6576C19.4036 48.6864 19.095 48.4682 19.0185 48.1345C18.935 47.7697 19.1598 47.4068 19.5223 47.3232L22.1847 46.7066C22.5472 46.623 22.9081 46.8495 22.9917 47.2143C23.0752 47.5791 22.8504 47.9421 22.4878 48.0257L19.8255 48.6423C19.7946 48.6493 19.7635 48.6549 19.7322 48.6576Z" fill="#00A4FF"/>
        <path d="M51.3165 45.1733C50.9879 45.202 50.6792 44.9838 50.6028 44.6502C50.5192 44.2854 50.7441 43.9224 51.1066 43.8388L53.7689 43.2222C54.1314 43.1386 54.4924 43.3652 54.5759 43.73C54.6595 44.0948 54.4346 44.4577 54.0721 44.5413L51.4097 45.1579C51.3788 45.1649 51.3478 45.1705 51.3165 45.1733Z" fill="#00A4FF"/>
        <path d="M35.1054 47.4438C34.9177 47.4602 34.723 47.398 34.5771 47.2535L32.6189 45.335C32.3524 45.0742 32.3464 44.6449 32.6053 44.3771C32.8643 44.1092 33.2909 44.1036 33.5574 44.3644L35.5156 46.283C35.7821 46.5438 35.7881 46.973 35.5292 47.2409C35.4122 47.3622 35.2604 47.4288 35.1053 47.4424L35.1054 47.4438Z" fill="#00A4FF"/>
        <path d="M53.1949 50.1938C49.7652 50.4938 46.5892 49.0078 44.5738 46.5015C43.0243 49.3197 40.1546 51.3346 36.7249 51.6347C33.2952 51.9348 30.1192 50.4487 28.1038 47.9424C26.5543 50.7606 23.6846 52.7756 20.2549 53.0756C18.0571 53.2679 15.9628 52.7257 14.2118 51.6515L14.924 59.7928C15.0538 61.2757 16.3538 62.372 17.8261 62.2432L57.001 58.8158C58.4747 58.6869 59.563 57.3802 59.4334 55.8988L58.7321 47.8834C57.2187 49.1639 55.3143 50.0069 53.1948 50.1923L53.1949 50.1938Z" fill="#FFD8B8"/>
        <path d="M15.7708 25.1532C13.8007 25.3256 12.0563 23.8527 11.8829 21.8704C11.7095 19.888 13.1715 18.1346 15.1417 17.9623C17.1119 17.7899 18.8562 19.2627 19.0297 21.2451C19.2031 23.2275 17.741 24.9808 15.7708 25.1532ZM15.2669 19.3936C14.0806 19.4974 13.201 20.5522 13.3054 21.7459C13.4099 22.9396 14.4592 23.8257 15.6456 23.7219C16.832 23.6181 17.7116 22.5633 17.6071 21.3696C17.5027 20.1758 16.4533 19.2898 15.2669 19.3936Z" fill="#00A4FF"/>
        <path d="M61.1485 33.9201C59.0033 34.1077 57.1042 32.5042 56.9154 30.3458C56.7266 28.1874 58.3183 26.2784 60.4635 26.0908C62.6087 25.9031 64.5078 27.5066 64.6966 29.665C64.8854 31.8235 63.2936 33.7324 61.1485 33.9201ZM60.5889 27.5235C59.2275 27.6426 58.2182 28.853 58.338 30.2228C58.4579 31.5925 59.662 32.6093 61.0234 32.4902C62.3847 32.3711 63.394 31.1607 63.2742 29.7909C63.1544 28.4211 61.9502 27.4044 60.5889 27.5235Z" fill="#00A4FF"/>
        <path d="M6.46582 52.5224C5.12723 52.6396 3.94165 51.6385 3.82382 50.2916C3.70598 48.9448 4.69971 47.7531 6.03831 47.6359C7.3769 47.5188 8.56248 48.5199 8.68031 49.8668C8.79815 51.2136 7.80442 52.4053 6.46582 52.5224ZM6.16353 49.0673C5.60875 49.1158 5.1975 49.609 5.24634 50.1672C5.29518 50.7254 5.78582 51.1397 6.3406 51.0911C6.89538 51.0426 7.30663 50.5494 7.25779 49.9912C7.20895 49.433 6.71832 49.0187 6.16353 49.0673Z" fill="#00A4FF"/>
        <path d="M8.38314 36.6887C8.32624 36.6937 8.26872 36.6916 8.21056 36.6822C6.47667 36.4099 5.08403 35.2539 4.06991 33.247C3.89133 32.8934 4.03128 32.4614 4.38242 32.2807C4.73369 32.1014 5.16317 32.2427 5.34317 32.5962C6.14773 34.1902 7.15862 35.0623 8.43038 35.2625C8.81988 35.3237 9.08711 35.6911 9.02678 36.0829C8.97567 36.4162 8.70451 36.6592 8.38444 36.6872L8.38314 36.6887Z" fill="#F1B0FF"/>
        <path d="M51.2819 19.1374C51.0017 19.1619 50.721 19.0177 50.5844 18.7499C50.4044 18.3964 50.5415 17.9647 50.8925 17.7826C52.8743 16.7597 53.9799 15.4543 54.2705 13.7948C54.3381 13.4038 54.7095 13.1434 55.0969 13.2134C55.4856 13.2818 55.7448 13.6557 55.6757 14.0454C55.3078 16.1487 53.9187 17.8351 51.5447 19.061C51.4597 19.1045 51.3701 19.1297 51.2805 19.1375L51.2819 19.1374Z" fill="#F1B0FF"/>
        <path d="M65.5224 48.6725C65.3162 48.6905 65.1034 48.6183 64.9475 48.4574C64.6717 48.1729 64.6792 47.7179 64.9603 47.4409C66.3613 46.0708 67.8543 45.294 69.3983 45.133C69.7861 45.0919 70.1423 45.3794 70.1826 45.774C70.2228 46.1685 69.9384 46.5223 69.5463 46.5623C68.329 46.689 67.1223 47.3311 65.9564 48.4716C65.8336 48.5919 65.6788 48.6574 65.5209 48.6712L65.5224 48.6725Z" fill="#F1B0FF"/>
        <path d="M35.1538 4.00548L36.2152 6.71639C36.2982 6.92835 36.4781 7.08424 36.6992 7.13701L39.5206 7.79736C40.0751 7.92625 40.2407 8.63867 39.8024 9.00297L37.5677 10.8542C37.394 10.9992 37.3015 11.2193 37.3214 11.4469L37.5725 14.3498C37.6223 14.9195 37.0004 15.2984 36.5206 14.9914L34.0785 13.4238C33.8887 13.302 33.6503 13.281 33.4417 13.3699L30.7759 14.5046C30.2522 14.7278 29.7015 14.2495 29.8436 13.6948L30.5687 10.8752C30.6255 10.6553 30.5705 10.4207 30.4222 10.2491L28.5238 8.04698C28.1506 7.61522 28.4327 6.94007 29.0002 6.90628L31.8905 6.73131C32.1157 6.71737 32.3198 6.59278 32.4362 6.39943L33.9278 3.90217C34.2203 3.41216 34.9453 3.47421 35.1539 4.00691L35.1538 4.00548Z" fill="#FFBE00"/>
    </g>
    <defs>
        <clipPath id="clip0_3295_4350">
            <rect width="66.5" height="57" fill="white" transform="translate(0 6.58496) rotate(-5)"/>
        </clipPath>
    </defs>
</svg>

<svg width="72" height="64" fill="none" xmlns="http://www.w3.org/2000/svg"><g clip-path="url(#a)"><path d="m47.225 36.283-5.523.484-.588-6.728a1.813 1.813 0 0 1 1.641-1.968l1.923-.168a1.813 1.813 0 0 1 1.958 1.653l.589 6.727ZM38.143 37.078l-5.522.483-.876-10.018a1.813 1.813 0 0 1 1.64-1.968l1.924-.168a1.813 1.813 0 0 1 1.958 1.653l.876 10.018ZM28.975 37.88l-5.522.483-.423-4.83a1.813 1.813 0 0 1 1.641-1.969l1.924-.168a1.813 1.813 0 0 1 1.957 1.653l.423 4.83Z" fill="#fff"/><path d="M36.089 21.866c.145 1.666-.651 3.096-1.78 3.194-1.127.099-2.16-1.17-2.306-2.837-.146-1.666.55-4.255 1.678-4.354 1.128-.098 2.262 2.33 2.408 3.997ZM27.374 27.856c.146 1.666-.65 3.096-1.779 3.195-1.128.099-2.16-1.171-2.306-2.837-.146-1.666.55-4.255 1.677-4.354 1.128-.099 2.262 2.33 2.408 3.996ZM45.458 24.363c.146 1.666-.65 3.096-1.779 3.195-1.128.099-2.16-1.171-2.307-2.837-.145-1.666.55-4.255 1.678-4.354 1.128-.099 2.262 2.33 2.408 3.996Z" fill="#FFBE00"/><path d="m19.798 38.501 31.137-2.724c3.69-.323 6.95 2.43 7.275 6.144l1.223 13.978a2.687 2.687 0 0 1-2.432 2.917l-39.176 3.427a2.687 2.687 0 0 1-2.902-2.45L13.7 45.815c-.325-3.715 2.408-6.991 6.098-7.314Z" fill="#F1B0FF"/><path d="M25.974 44.819a.666.666 0 0 1-.414-.1.68.68 0 0 1-.215-.934l1.447-2.33a.67.67 0 0 1 .927-.216.68.68 0 0 1 .215.933l-1.447 2.33a.672.672 0 0 1-.513.317ZM50.93 41.7a.665.665 0 0 1-.415-.1.68.68 0 0 1-.215-.933l1.448-2.33a.671.671 0 0 1 .927-.216.68.68 0 0 1 .215.933l-1.448 2.33a.672.672 0 0 1-.513.317ZM37.986 43.57a.666.666 0 0 1-.414-.1.68.68 0 0 1-.215-.933l1.447-2.33a.671.671 0 0 1 .927-.216.68.68 0 0 1 .215.933l-1.447 2.33a.672.672 0 0 1-.513.316ZM46.257 44.508a.665.665 0 0 1-.414-.1l-2.318-1.46a.68.68 0 0 1-.215-.932.671.671 0 0 1 .927-.216l2.318 1.459a.68.68 0 0 1 .215.933.672.672 0 0 1-.513.316ZM20.68 43.967a.665.665 0 0 1-.414-.101l-2.318-1.459a.68.68 0 0 1-.215-.933.671.671 0 0 1 .928-.215l2.317 1.459a.68.68 0 0 1 .215.933.672.672 0 0 1-.512.316ZM19.732 48.658a.674.674 0 0 1-.713-.523.675.675 0 0 1 .503-.812l2.663-.616a.673.673 0 0 1 .807.507.676.676 0 0 1-.504.812l-2.662.616a.692.692 0 0 1-.094.016ZM51.316 45.173a.674.674 0 0 1-.713-.523.675.675 0 0 1 .504-.811l2.662-.617a.673.673 0 0 1 .807.508.675.675 0 0 1-.504.811l-2.662.617a.707.707 0 0 1-.093.015ZM35.105 47.444a.666.666 0 0 1-.528-.19l-1.958-1.919a.68.68 0 0 1-.014-.958.67.67 0 0 1 .952-.013l1.959 1.919a.68.68 0 0 1 .013.958.667.667 0 0 1-.424.201v.002Z" fill="#00A4FF"/><path d="M53.195 50.194c-3.43.3-6.606-1.186-8.621-3.693-1.55 2.819-4.42 4.834-7.85 5.134-3.429.3-6.605-1.186-8.62-3.693-1.55 2.819-4.42 4.834-7.85 5.134a9.87 9.87 0 0 1-6.042-1.425l.712 8.142a2.686 2.686 0 0 0 2.902 2.45l39.175-3.427a2.686 2.686 0 0 0 2.432-2.917l-.7-8.016a9.875 9.875 0 0 1-5.538 2.31Z" fill="#FFD8B8"/><path d="M15.77 25.153c-1.97.173-3.714-1.3-3.887-3.283-.173-1.982 1.289-3.735 3.259-3.908 1.97-.172 3.714 1.3 3.888 3.283.173 1.982-1.289 3.736-3.26 3.908Zm-.503-5.76a2.168 2.168 0 0 0-1.962 2.353 2.168 2.168 0 0 0 2.34 1.976 2.168 2.168 0 0 0 1.962-2.352 2.168 2.168 0 0 0-2.34-1.976ZM61.148 33.92c-2.145.188-4.044-1.416-4.233-3.574-.188-2.159 1.403-4.068 3.549-4.255 2.145-.188 4.044 1.416 4.233 3.574.188 2.159-1.403 4.067-3.549 4.255Zm-.56-6.397a2.488 2.488 0 0 0-2.25 2.7 2.488 2.488 0 0 0 2.685 2.267 2.487 2.487 0 0 0 2.251-2.7 2.487 2.487 0 0 0-2.685-2.267ZM6.466 52.522a2.448 2.448 0 0 1-2.642-2.23 2.448 2.448 0 0 1 2.214-2.656 2.448 2.448 0 0 1 2.642 2.23 2.448 2.448 0 0 1-2.214 2.656Zm-.302-3.455a1.014 1.014 0 0 0-.918 1.1c.05.558.54.973 1.095.924.554-.048.966-.542.917-1.1a1.013 1.013 0 0 0-1.094-.924Z" fill="#00A4FF"/><path d="M8.383 36.689a.696.696 0 0 1-.172-.007c-1.734-.272-3.127-1.428-4.141-3.435a.714.714 0 1 1 1.273-.65c.805 1.593 1.816 2.465 3.087 2.666a.719.719 0 0 1-.046 1.424v.002ZM51.282 19.137a.72.72 0 0 1-.39-1.355c1.982-1.022 3.088-2.328 3.378-3.987a.712.712 0 0 1 .827-.582.717.717 0 0 1 .579.832c-.368 2.104-1.757 3.79-4.131 5.016a.715.715 0 0 1-.264.076ZM65.522 48.672a.713.713 0 0 1-.575-.215.723.723 0 0 1 .013-1.016c1.401-1.37 2.894-2.147 4.438-2.308a.718.718 0 0 1 .148 1.43c-1.217.126-2.424.768-3.59 1.909a.707.707 0 0 1-.435.2h.001Z" fill="#F1B0FF"/><path d="m35.154 4.005 1.061 2.711a.69.69 0 0 0 .484.421l2.822.66c.554.13.72.842.281 1.206l-2.234 1.851a.692.692 0 0 0-.247.593l.252 2.903a.686.686 0 0 1-1.052.641l-2.443-1.567a.683.683 0 0 0-.636-.054l-2.666 1.135a.688.688 0 0 1-.932-.81l.725-2.82a.694.694 0 0 0-.147-.626l-1.898-2.202A.69.69 0 0 1 29 6.907l2.89-.176a.687.687 0 0 0 .546-.332l1.492-2.497a.684.684 0 0 1 1.226.105v-.002Z" fill="#FFBE00"/></g><defs><clipPath id="a"><path fill="#fff" transform="rotate(-5 75.41 3.292)" d="M0 0h66.5v57H0z"/></clipPath></defs></svg>
